src/lib/packages/icons/src/assets/line/light-emergency-on.svg

<svg width="24" height="24" viewBox="0 0 24 24" fill="none" xmlns="http://www.w3.org/2000/svg">
<path d="M12.75 9.41895C12.75 9.83294 12.414 10.1689 12 10.1689C10.661 10.1689 9.57299 11.1719 9.46999 12.5029C9.43899 12.8959 9.11092 13.1951 8.72292 13.1951C8.70292 13.1951 8.68411 13.1951 8.66311 13.1931C8.25111 13.1611 7.94114 12.8 7.97414 12.387C8.13614 10.302 9.90502 8.66895 12 8.66895C12.414 8.66895 12.75 9.00495 12.75 9.41895ZM20.75 20.499V22C20.75 22.414 20.414 22.75 20 22.75H4.00002C3.58602 22.75 3.25002 22.414 3.25002 22V20.5C3.25002 19.615 3.76799 18.856 4.51199 18.489V13.7009C4.51199 8.64593 7.52202 5.25 12 5.25C16.478 5.25 19.4881 8.64593 19.4881 13.7009V18.489C20.2321 18.855 20.75 19.615 20.75 20.499ZM6.01199 18.25H17.989V13.7009C17.989 9.47893 15.638 6.75 12.001 6.75C8.364 6.75 6.01296 9.47893 6.01296 13.7009V18.25H6.01199ZM19.25 20.499C19.25 20.086 18.914 19.75 18.501 19.75H5.50002C5.08702 19.75 4.75002 20.086 4.75002 20.5V21.25H19.25V20.499ZM12 4.25C12.414 4.25 12.75 3.914 12.75 3.5V2C12.75 1.586 12.414 1.25 12 1.25C11.586 1.25 11.25 1.586 11.25 2V3.5C11.25 3.914 11.586 4.25 12 4.25ZM18.5 6.25C18.692 6.25 18.8841 6.17703 19.0301 6.03003L20.5301 4.53003C20.8231 4.23703 20.8231 3.76199 20.5301 3.46899C20.2371 3.17599 19.762 3.17599 19.469 3.46899L17.969 4.96899C17.676 5.26199 17.676 5.73703 17.969 6.03003C18.116 6.17703 18.308 6.25 18.5 6.25ZM4.96999 6.03003C5.11599 6.17603 5.30802 6.25 5.50002 6.25C5.69202 6.25 5.88405 6.17703 6.03005 6.03003C6.32305 5.73703 6.32305 5.26199 6.03005 4.96899L4.53005 3.46899C4.23705 3.17599 3.76202 3.17599 3.46902 3.46899C3.17602 3.76199 3.17602 4.23703 3.46902 4.53003L4.96999 6.03003Z" fill="currentColor"/>
</svg>

<svg xmlns="http://www.w3.org/2000/svg" width="24" height="24" fill="none"><path fill="currentColor" d="M12.75 9.419a.75.75 0 0 1-.75.75 2.515 2.515 0 0 0-2.53 2.334.75.75 0 0 1-.747.692c-.02 0-.039 0-.06-.002a.75.75 0 0 1-.689-.806C8.136 10.302 9.905 8.669 12 8.669a.75.75 0 0 1 .75.75Zm8 11.08V22a.75.75 0 0 1-.75.75H4a.75.75 0 0 1-.75-.75v-1.5c0-.885.518-1.644 1.262-2.011v-4.788c0-5.055 3.01-8.451 7.488-8.451 4.478 0 7.488 3.396 7.488 8.45v4.789a2.243 2.243 0 0 1 1.262 2.01ZM6.012 18.25h11.977V13.7c0-4.221-2.351-6.95-5.988-6.95-3.637 0-5.988 2.729-5.988 6.95v4.55h-.001Zm13.238 2.249a.75.75 0 0 0-.749-.749H5.5a.75.75 0 0 0-.75.75v.75h14.5v-.751ZM12 4.25a.75.75 0 0 0 .75-.75V2a.75.75 0 0 0-1.5 0v1.5c0 .414.336.75.75.75Zm6.5 2a.744.744 0 0 0 .53-.22l1.5-1.5a.75.75 0 1 0-1.061-1.061l-1.5 1.5A.75.75 0 0 0 18.5 6.25ZM4.97 6.03a.748.748 0 0 0 1.06 0 .75.75 0 0 0 0-1.061l-1.5-1.5A.75.75 0 1 0 3.469 4.53l1.501 1.5Z"/></svg>
